packages/foundations/assets/icons/functional/images/technology/qr_code_14.svg

<svg width="14" height="14" viewBox="0 0 14 14" fill="none" xmlns="http://www.w3.org/2000/svg">
<g clip-path="url(#clip0_187_625)">
<path fill-rule="evenodd" clip-rule="evenodd" d="M5.01724 7.69999C5.72481 7.69927 6.29906 8.27246 6.30002 8.9804V11.3191C6.29906 12.0272 5.72488 12.6005 5.01724 12.6H2.68018C1.97347 12.5993 1.40075 12.0262 1.40002 11.3191V8.9804C1.40099 8.27348 1.97364 7.70072 2.68018 7.69999H5.01724ZM4.90002 9.09999H2.80002V11.2H4.90002V9.09999ZM11.3193 1.39999C12.0263 1.40072 12.5993 1.97365 12.6 2.68061V5.0185C12.5995 5.72571 12.0266 6.29903 11.3193 6.29999H8.98076C8.27373 6.29927 7.70075 5.72634 7.70002 5.01938V2.68061C7.70075 1.97365 8.27373 1.40072 8.98076 1.39999H11.3193ZM11.2 2.79999H9.10002V4.89999H11.2V2.79999ZM5.01929 1.39999C5.72615 1.40072 6.29906 1.97348 6.30002 2.6804V5.01959C6.29882 5.72641 5.72605 6.29903 5.01929 6.29999H2.68076C1.974 6.29903 1.40123 5.72641 1.40002 5.01959V2.6804C1.40099 1.97348 1.9739 1.40072 2.68076 1.39999H5.01929ZM4.90002 2.79999H2.80002V4.89999H4.90002V2.79999ZM8.40002 10.5C8.01342 10.5 7.70002 10.1866 7.70002 9.79999V8.39999C7.70002 8.01339 8.01342 7.69999 8.40002 7.69999H9.80002C10.1866 7.69999 10.5 8.01339 10.5 8.39999V9.79999H11.9C12.2866 9.79999 12.6 10.1134 12.6 10.5V11.9C12.6 12.2866 12.2866 12.6 11.9 12.6H10.5C10.1134 12.6 9.80002 12.2866 9.80002 11.9V10.5H8.40002Z" fill="#1A1C1F"/>
</g>
<defs>
<clipPath id="clip0_187_625">
<rect width="14" height="14" fill="white"/>
</clipPath>
</defs>
</svg>

<svg xmlns="http://www.w3.org/2000/svg" width="14" height="14" fill="none"><g clip-path="url(#a)"><path fill="#1A1C1F" fill-rule="evenodd" d="M5.017 7.7c.708 0 1.282.572 1.283 1.28v2.34a1.28 1.28 0 0 1-1.283 1.28H2.68c-.707 0-1.28-.574-1.28-1.28V8.98A1.28 1.28 0 0 1 2.68 7.7zM4.9 9.1H2.8v2.1h2.1zm6.42-7.7c.706 0 1.28.574 1.28 1.28V5.02c0 .707-.573 1.28-1.28 1.281H8.98c-.706 0-1.28-.574-1.28-1.28V2.68c0-.706.574-1.28 1.28-1.28zm-.12 1.4H9.1v2.1h2.1zM5.02 1.4c.706 0 1.28.573 1.28 1.28v2.34A1.283 1.283 0 0 1 5.02 6.3H2.68A1.283 1.283 0 0 1 1.4 5.02V2.68A1.28 1.28 0 0 1 2.68 1.4zM4.9 2.8H2.8v2.1h2.1zm3.5 7.7a.7.7 0 0 1-.7-.7V8.4a.7.7 0 0 1 .7-.7h1.4a.7.7 0 0 1 .7.7v1.4h1.4a.7.7 0 0 1 .7.7v1.4a.7.7 0 0 1-.7.7h-1.4a.7.7 0 0 1-.7-.7v-1.4z" clip-rule="evenodd"/></g><defs><clipPath id="a"><path fill="#fff" d="M0 0h14v14H0z"/></clipPath></defs></svg>
